dist/img/svg/partners__slide__7.svg

<svg width="148" height="53" viewBox="0 0 148 53" fill="none" xmlns="http://www.w3.org/2000/svg">
<g opacity="0.72">
<path d="M67.287 24V14.9H68.951V21.361L73.839 14.9H75.412V24H73.748V17.552L68.86 24H67.287ZM79.2765 24V14.9H80.6545L84.6455 21.543H83.9045L87.8305 14.9H89.2085L89.2345 24H87.6225L87.6095 17.409H87.9475L84.6195 22.96H83.8655L80.4855 17.409H80.8755V24H79.2765ZM93.094 24V14.9H101.141V24H99.477V15.914L99.867 16.33H94.368L94.758 15.914V24H93.094ZM106.567 18.683H111.091V20.074H106.567V18.683ZM106.697 22.583H111.832V24H105.007V14.9H111.65V16.317H106.697V22.583ZM115.016 24V14.9H118.76C119.566 14.9 120.255 15.03 120.827 15.29C121.408 15.55 121.854 15.9227 122.166 16.408C122.478 16.8933 122.634 17.4697 122.634 18.137C122.634 18.8043 122.478 19.3807 122.166 19.866C121.854 20.3513 121.408 20.724 120.827 20.984C120.255 21.244 119.566 21.374 118.76 21.374H115.952L116.706 20.581V24H115.016ZM116.706 20.763L115.952 19.944H118.682C119.427 19.944 119.986 19.788 120.359 19.476C120.74 19.1553 120.931 18.709 120.931 18.137C120.931 17.5563 120.74 17.11 120.359 16.798C119.986 16.486 119.427 16.33 118.682 16.33H115.952L116.706 15.498V20.763ZM125.546 24V14.9H127.21V21.361L132.098 14.9H133.671V24H132.007V17.552L127.119 24H125.546ZM142.813 24V21.088L143.229 21.465H140.564C139.802 21.465 139.143 21.3393 138.588 21.088C138.042 20.828 137.622 20.4597 137.327 19.983C137.033 19.4977 136.885 18.917 136.885 18.241C136.885 17.539 137.041 16.941 137.353 16.447C137.665 15.9443 138.107 15.563 138.679 15.303C139.251 15.0343 139.923 14.9 140.694 14.9H144.477V24H142.813ZM136.911 24L139.16 20.75H140.863L138.692 24H136.911ZM142.813 20.542V15.862L143.229 16.33H140.746C140.053 16.33 139.52 16.4903 139.147 16.811C138.783 17.123 138.601 17.591 138.601 18.215C138.601 18.813 138.775 19.2767 139.121 19.606C139.477 19.9267 139.997 20.087 140.681 20.087H143.229L142.813 20.542ZM73.293 40L70.212 35.567L71.577 34.722L75.204 40H73.293ZM67.274 40V30.9H68.938V40H67.274ZM68.431 36.165V34.709H71.499V36.165H68.431ZM71.733 35.645L70.186 35.437L73.293 30.9H75.087L71.733 35.645ZM77.698 40.13C77.5506 40.13 77.4033 40.117 77.256 40.091C77.1086 40.065 76.9483 40.0347 76.775 40L76.892 38.531C77.0133 38.5657 77.1433 38.583 77.282 38.583C77.646 38.583 77.9363 38.4357 78.153 38.141C78.3696 37.8377 78.5256 37.3957 78.621 36.815C78.7163 36.2343 78.7813 35.5193 78.816 34.67L78.946 30.9H85.641V40H83.977V31.914L84.367 32.33H80.038L80.402 31.901L80.311 34.605C80.285 35.5063 80.2243 36.2993 80.129 36.984C80.0336 37.6687 79.8863 38.245 79.687 38.713C79.4963 39.1723 79.2406 39.5233 78.92 39.766C78.5993 40.0087 78.192 40.13 77.698 40.13ZM89.514 40V30.9H91.178V37.361L96.066 30.9H97.639V40H95.975V33.552L91.087 40H89.514ZM101.503 40V30.9H102.881L106.872 37.543H106.131L110.057 30.9H111.435L111.461 40H109.849L109.836 33.409H110.174L106.846 38.96H106.092L102.712 33.409H103.102V40H101.503ZM114.151 40L118.246 30.9H119.91L124.018 40H122.25L118.727 31.797H119.403L115.893 40H114.151ZM116.036 37.894L116.491 36.568H121.405L121.86 37.894H116.036ZM128.167 40V31.914L128.57 32.33H125.164V30.9H132.86V32.33H129.454L129.844 31.914V40H128.167ZM134.004 40L138.099 30.9H139.763L143.871 40H142.103L138.58 31.797H139.256L135.746 40H134.004ZM135.889 37.894L136.344 36.568H141.258L141.713 37.894H135.889Z" fill="black"/>
<path d="M47.898 0.0556148C47.7921 0.109468 47.6156 0.28235 47.5656 0.382758C47.5507 0.412452 47.4969 0.492476 47.4448 0.559415C47.3388 0.698576 47.1028 1.06825 46.8519 1.48649C46.3614 2.30762 44.5146 5.09663 43.8253 6.05718C43.502 6.50687 43.0226 7.09019 42.1307 8.11943C41.8335 8.46142 41.4377 8.92219 41.2482 9.14163C40.4102 10.117 39.5387 11.0292 39.2899 11.1928C39.2305 11.2318 39.1429 11.2764 39.0948 11.2912C38.9051 11.3506 38.426 11.2764 37.978 11.1166C37.8499 11.072 37.666 11.0051 37.5693 10.9716C37.1753 10.8304 36.0494 10.5443 35.2746 10.3883C34.5166 10.2358 33.1509 10.1299 32.209 10.1505C31.3524 10.1691 29.8641 10.3269 29.2639 10.4643C28.6378 10.6057 27.3929 10.9605 27.0044 11.1093C26.1667 11.4251 25.6666 11.6498 25.0498 11.988C23.6751 12.7387 23.3572 12.9523 22.4876 13.6975C21.8818 14.2159 21.4193 14.6432 20.9009 15.1595C20.3918 15.6706 20.388 15.6744 19.9421 16.2671C19.6968 16.5939 19.3774 17.0122 19.2342 17.1979C18.9854 17.5175 18.9685 17.5361 18.859 17.5844C18.6471 17.6791 18.1919 17.8222 16.9173 18.1902C15.8209 18.508 15.338 18.6527 14.7713 18.8311C13.3258 19.2901 12.5973 19.6263 12.5973 19.8344C12.5973 19.9293 12.7108 19.9479 13.1194 19.9182C13.7196 19.8772 14.3774 19.7806 14.92 19.6563C15.2879 19.5725 16.8245 19.1766 17.2628 19.0541C17.523 18.9798 18.2848 18.7493 18.3628 18.7179C18.3814 18.7103 18.359 18.7642 18.2996 18.8628C18.0487 19.2753 17.6494 20.221 17.3632 21.07C16.9395 22.3298 16.6516 24.0244 16.5995 25.5665C16.5829 26.0662 16.6367 27.7274 16.6757 27.902C16.6868 27.9468 16.6516 27.9596 16.2577 28.0729C15.6389 28.2495 15.2061 28.3444 14.1024 28.5467C12.8165 28.781 12.4636 28.8366 11.1946 29.004C9.55383 29.2194 8.82002 29.2863 6.80029 29.4127C4.541 29.5521 4.2901 29.5611 2.19966 29.5611C0.28235 29.5631 0.382757 29.5556 0.152247 29.7005C0.0890836 29.7395 0 29.8976 0 29.9663C0 30.1037 0.211636 30.2859 0.466304 30.3677C0.648246 30.4253 0.771051 30.4474 1.1148 30.4791C2.63451 30.6259 4.20655 30.6186 7.13473 30.4532C8.81449 30.3584 9.08199 30.338 10.4698 30.1913C11.4603 30.0871 13.779 29.8306 14.2232 29.775C15.8304 29.5725 18.1995 29.2008 20.2635 28.8273C21.5922 28.5857 21.8708 28.5208 22.129 28.3907C22.4485 28.2292 22.4765 28.1008 22.4523 26.9135C22.443 26.4842 22.4375 26.0365 22.4392 25.9178C22.4485 25.4384 22.6866 24.1041 22.8816 23.441C23.0004 23.0339 23.5561 21.6387 23.7901 21.15C23.961 20.7987 24.013 20.719 24.4758 20.0984C25.1799 19.1489 25.5813 18.5467 25.8506 18.0414C26.1035 17.5638 26.1722 17.2445 26.0642 17.0326C25.9734 16.8486 25.6148 16.8262 24.9069 16.9563C24.7748 16.9805 24.2101 17.105 23.6527 17.2331C22.3965 17.523 22.1569 17.5769 21.7017 17.6607C21.2706 17.7405 21.0793 17.787 20.6334 17.9206C20.2766 18.0283 19.7433 18.1753 19.5946 18.2088C19.4907 18.2309 19.3903 18.2088 19.3606 18.1529C19.3346 18.1028 19.383 17.9579 19.4738 17.8185C19.6318 17.5734 19.892 17.3484 20.1502 17.2331C20.4588 17.0957 21.226 16.8134 22.4448 16.3916C22.8278 16.2577 23.4259 16.0496 23.7735 15.9288C24.6467 15.6223 25.8692 15.2061 26.0031 15.1709C26.2537 15.1022 26.5381 15.0018 26.7834 14.892C27.3595 14.6356 27.7495 14.5224 28.047 14.5241C28.3497 14.5241 28.504 14.6004 28.8105 14.8958C29.0631 15.1412 29.2249 15.4422 29.3029 15.8211C29.3548 16.0756 29.3492 16.2429 29.2823 16.4306C29.1504 16.793 28.6897 17.5213 28.0042 18.4501C27.5248 19.0986 27.0119 19.9348 26.7983 20.4104C26.6012 20.8488 26.4062 21.7147 26.3448 22.4264C26.3207 22.7015 26.332 23.2068 26.3655 23.3834C26.5084 24.1469 27.1458 24.7398 28.0691 24.9663C28.3386 25.0315 28.582 25.0352 28.7901 24.9738C29.3548 24.8103 30.4771 24.2529 30.9137 23.9184C31.4767 23.4874 32.6083 22.3819 33.2307 21.6553C33.6524 21.1629 34.4441 20.0352 34.8697 19.3236C35.0685 18.9909 35.152 18.8386 35.5534 18.0787C35.9417 17.3428 36.0252 17.1961 36.3207 16.7223C36.7407 16.0496 37.0658 15.5795 37.3685 15.2116C38.0784 14.3495 38.5913 13.7886 39.5946 12.7739C42.2497 10.0911 43.6655 8.60814 44.7152 7.41356C45.1334 6.93593 46.0529 5.82314 46.7925 4.89783C47.1511 4.44814 48.084 3.07313 48.2901 2.6866C48.4443 2.40249 48.5817 1.95657 48.6245 1.60904C48.6487 1.40646 48.6524 0.832453 48.6283 0.785898C48.619 0.767276 48.6041 0.715437 48.5968 0.668882C48.5782 0.551865 48.4796 0.297197 48.4333 0.245357C48.3794 0.18773 48.0747 0 48.0336 0C48.017 0.00176154 47.9556 0.0259203 47.898 0.0556148Z" fill="black"/>
<path d="M48.4202 6.96194C48.2531 6.98962 48.004 7.10488 47.7699 7.26669C47.43 7.49896 47.1567 7.772 46.6458 8.38879C45.7188 9.50938 45.5532 9.69509 45.1279 10.0851C44.7507 10.4327 44.6057 10.5517 44.236 10.8172C43.8661 11.0829 43.7363 11.1982 43.6117 11.3655C43.3477 11.7221 43.2345 12.0603 43.2307 12.4859C43.2307 12.7572 43.2531 12.8462 43.3291 12.8852C43.5299 12.9894 43.9741 12.7999 44.6392 12.3278C44.7728 12.235 44.9847 12.092 45.111 12.012C45.2394 11.9322 45.5069 11.7425 45.7057 11.592C46.1181 11.2838 47.5321 10.1262 47.7123 9.95328C47.965 9.70793 48.2214 9.36795 48.3515 9.10976C48.6152 8.58935 48.7008 8.19552 48.7063 7.50626C48.7081 7.19421 48.7046 7.15697 48.6711 7.09934C48.6097 6.99541 48.5186 6.94508 48.4202 6.96194Z" fill="black"/>
<path d="M47.5282 13.4224C47.1679 13.5246 46.6623 13.8014 46.0493 14.2345C45.161 14.8623 45.0236 14.9441 44.6577 15.0687C44.5052 15.1205 44.3212 15.195 44.2487 15.232C44.0834 15.3231 43.9626 15.4625 43.7266 15.8415C43.6302 15.9958 43.5056 16.1835 43.448 16.2595C43.2565 16.5159 43.1805 16.7354 43.2361 16.871C43.2716 16.9583 43.3569 17.0195 43.4404 17.0195C43.6151 17.0195 44.141 16.8876 44.6111 16.7278C45.1834 16.5328 46.2405 16.0068 46.7665 15.6576C47.2421 15.34 47.6863 14.959 47.883 14.6988C48.0484 14.4778 48.1042 14.1842 48.0318 13.898C47.9852 13.7085 47.8793 13.4873 47.8126 13.4335C47.7567 13.3907 47.6583 13.3872 47.5282 13.4224Z" fill="black"/>
<path d="M27.1068 15.4457C26.932 15.5109 26.7165 15.7173 26.6793 15.8529C26.6385 16.0069 26.7148 16.2281 26.8429 16.3265C26.9023 16.3713 26.9264 16.3786 27.0324 16.3786C27.1735 16.3768 27.2943 16.3413 27.5173 16.2319C27.7961 16.0962 27.8852 15.9679 27.8331 15.7746C27.8072 15.6762 27.6864 15.5444 27.5638 15.4812C27.4503 15.4236 27.2163 15.405 27.1068 15.4457Z" fill="black"/>
<path d="M45.7911 19.1469C45.165 19.2604 44.1727 19.6635 43.9035 19.9144C43.6694 20.1298 43.3924 20.6205 42.5025 22.3891C41.7891 23.8069 41.6238 24.1154 41.4305 24.3867C40.4176 25.8005 39.2824 27.2479 38.7975 27.7384C38.5449 27.9968 38.3906 28.0879 37.9261 28.2533C37.5843 28.3758 37.4374 28.4521 37.313 28.5671C37.194 28.6768 37.0659 28.8869 37.1087 28.9015C37.1215 28.9053 37.2499 28.9463 37.3928 28.9926C39.251 29.5835 41.3578 30.5609 42.2572 31.2484C42.3166 31.2929 42.3614 31.3337 42.3576 31.3375C42.3538 31.3413 42.2907 31.3209 42.2164 31.2892C41.8392 31.1349 41.5901 31.0755 40.9843 31.0013C40.7765 30.9771 40.4363 30.9306 40.2264 30.8991C39.6801 30.8191 39.5147 30.8246 39.3884 30.9306L39.329 30.9809L39.3401 31.1684C39.3569 31.4714 39.4387 31.6553 39.591 31.7333C39.749 31.8131 40.167 31.906 40.819 32.0046C41.2929 32.0751 41.8133 32.1755 42.2979 32.2907C42.6009 32.3612 42.8108 32.404 43.3758 32.5044C43.8051 32.5824 43.7937 32.5768 44.0371 32.8257C44.3235 33.1194 44.5945 33.4725 44.7135 33.7027L44.7452 33.7659L44.7004 33.7548C44.5072 33.7065 42.9261 33.476 41.9544 33.3517C40.5774 33.177 40.1391 33.1398 40.0017 33.1881C39.7601 33.2699 39.5761 33.5636 39.5761 33.8608C39.5779 34.0633 39.6783 34.2007 39.9088 34.3178C40.1242 34.4255 40.204 34.4403 41.7036 34.6429C42.5582 34.7581 42.7031 34.7861 43.4669 34.97C44.2583 35.1613 44.5147 35.2096 44.7711 35.2227C44.9793 35.232 45.0052 35.2302 45.0814 35.193C45.3285 35.074 45.8729 34.1003 46.7295 32.2462C47.0249 31.605 47.194 31.1535 47.3797 30.494C47.7383 29.2324 47.8871 28.2271 47.9744 26.4417C48.0209 25.5126 47.9892 25.0128 47.8053 23.7641C47.6324 22.5862 47.4208 21.5438 47.2496 21.0292C47.0269 20.3621 46.6497 19.6021 46.3819 19.2752C46.2594 19.1227 46.1034 19.0892 45.7911 19.1469Z" fill="black"/>
<path d="M23.7938 31.9324C23.7417 32.066 23.855 32.3672 24.0837 32.7052C24.4217 33.2108 25.2338 34.0357 26.04 34.6915C26.5642 35.1208 27.1475 35.5071 27.4057 35.5982L27.5006 35.6316L27.4115 35.6427C27.1996 35.6706 26.3969 35.7524 25.7335 35.8138C25.3397 35.8508 24.8009 35.9011 24.5352 35.9271C22.7143 36.1017 21.8169 36.1649 20.8005 36.1873L20.2728 36.2003L20.3007 36.2653C20.4567 36.6407 21.8076 37.8854 23.1416 38.8869C24.3792 39.8123 26.0941 40.6762 27.7774 41.2207C28.7641 41.5383 29.695 41.6833 31.1963 41.752C31.7351 41.7761 33.2827 41.765 33.7417 41.7336C35.0443 41.6425 35.9006 41.5086 36.7331 41.267C37.0471 41.1742 37.2349 41.1055 37.9966 40.799C38.2364 40.7023 38.5392 40.5871 38.6673 40.5425L38.9015 40.4608L39.234 40.691C40.1371 41.3136 40.8543 41.8727 41.564 42.5026C41.9394 42.8371 42.6901 43.5915 43.1526 44.1006C43.3683 44.3346 43.8847 44.8996 44.3047 45.3548C45.9434 47.133 46.5584 47.8167 47.1642 48.5394C47.3333 48.74 47.3519 48.7548 47.374 48.7251C47.4261 48.6547 47.4448 48.5394 47.441 48.2999C47.4372 47.9579 47.4093 47.7684 47.3406 47.6234C47.1808 47.2817 46.5212 46.306 45.7298 45.2433C43.7621 42.603 41.7796 40.3659 40.806 39.6915C40.728 39.6356 40.6276 39.5727 40.5831 39.5503L40.503 39.5095L40.6462 39.4184C40.8171 39.3105 41.146 39.0727 41.4246 38.8555C41.7963 38.5636 42.6639 37.8335 43.0429 37.4933C43.0802 37.4581 43.0857 37.4581 43.3031 37.5046C43.4239 37.5288 43.7211 37.5882 43.9609 37.6347C45.1537 37.8688 45.5868 38.0137 46.7852 38.5784C47.2998 38.82 47.7309 38.9984 47.8924 39.0374C48.1247 39.0895 48.2566 38.9687 48.2566 38.703C48.2586 38.3295 47.9445 37.7704 47.5804 37.4953C47.0899 37.1236 45.8969 36.6407 44.4886 36.2429C43.6172 35.9958 43.1841 35.9029 42.298 35.7786C40.7242 35.5556 39.7934 35.4645 39.0742 35.4645C38.6859 35.4625 38.6061 35.4683 38.3497 35.5128C38.1916 35.5388 37.9279 35.5833 37.7643 35.6095C37.2386 35.693 36.9915 35.7803 36.8111 35.9439C36.6755 36.0665 36.6327 36.1556 36.6458 36.2839C36.6571 36.3916 36.7479 36.6015 36.8466 36.7464C37.0844 37.0995 37.718 37.7628 38.136 38.0973C38.279 38.2125 38.5429 38.4224 38.7211 38.5636C39.0928 38.861 39.4534 39.2103 39.5201 39.3366L39.5649 39.424L39.5183 39.513C39.4627 39.621 39.3585 39.7063 39.2098 39.7639C39.0669 39.8198 38.7435 39.8271 38.5968 39.775C38.4778 39.7342 38.1526 39.5465 37.1141 38.9259C34.8976 37.6013 34.9756 37.6438 33.5467 37.0029C33.097 36.8005 32.4744 36.5162 32.1624 36.3712L31.5957 36.1072L31.3727 36.0758C30.3825 35.9326 29.3978 35.6039 28.2437 35.0241C27.4931 34.6487 26.7796 34.1434 25.5292 33.1028C24.6542 32.3745 24.2974 32.107 24.0392 31.9862C23.8645 31.9062 23.8087 31.8934 23.7938 31.9324Z" fill="black"/>
<path d="M9.66156 48.1341C9.66156 48.1584 9.77012 48.2632 9.78303 48.2521C9.78682 48.2465 9.76253 48.2126 9.7271 48.1792C9.69167 48.1437 9.66156 48.125 9.66156 48.1341Z" fill="black"/>
</g>
</svg>

<svg width="148" height="53" viewBox="0 0 148 53" fill="none" xmlns="http://www.w3.org/2000/svg"><g opacity=".72" fill="#000"><path d="M67.287 24v-9.1h1.664v6.461l4.888-6.461h1.573V24h-1.664v-6.448L68.86 24h-1.573zm11.99 0v-9.1h1.377l3.992 6.643h-.742l3.927-6.643h1.377l.026 9.1h-1.611l-.014-6.591h.339L84.62 22.96h-.755l-3.38-5.551h.39V24h-1.599zm13.817 0v-9.1h8.047V24h-1.664v-8.086l.39.416h-5.499l.39-.416V24h-1.664zm13.473-5.317h4.524v1.391h-4.524v-1.391zm.13 3.9h5.135V24h-6.825v-9.1h6.643v1.417h-4.953v6.266zM115.016 24v-9.1h3.744c.806 0 1.495.13 2.067.39.581.26 1.027.633 1.339 1.118.312.485.468 1.062.468 1.729s-.156 1.244-.468 1.729c-.312.485-.758.858-1.339 1.118-.572.26-1.261.39-2.067.39h-2.808l.754-.793V24h-1.69zm1.69-3.237l-.754-.819h2.73c.745 0 1.304-.156 1.677-.468.381-.32.572-.767.572-1.339 0-.58-.191-1.027-.572-1.339-.373-.312-.932-.468-1.677-.468h-2.73l.754-.832v5.265zm8.84 3.237v-9.1h1.664v6.461l4.888-6.461h1.573V24h-1.664v-6.448L127.119 24h-1.573zm17.267 0v-2.912l.416.377h-2.665c-.762 0-1.421-.126-1.976-.377a2.914 2.914 0 01-1.261-1.105c-.294-.485-.442-1.066-.442-1.742 0-.702.156-1.3.468-1.794a2.957 2.957 0 011.326-1.144c.572-.269 1.244-.403 2.015-.403h3.783V24h-1.664zm-5.902 0l2.249-3.25h1.703L138.692 24h-1.781zm5.902-3.458v-4.68l.416.468h-2.483c-.693 0-1.226.16-1.599.481-.364.312-.546.78-.546 1.404 0 .598.174 1.062.52 1.391.356.32.876.481 1.56.481h2.548l-.416.455zM73.293 40l-3.081-4.433 1.365-.845L75.204 40h-1.911zm-6.019 0v-9.1h1.664V40h-1.664zm1.157-3.835v-1.456h3.068v1.456h-3.068zm3.302-.52l-1.547-.208 3.107-4.537h1.794l-3.354 4.745zm5.965 4.485c-.147 0-.295-.013-.442-.039a21.358 21.358 0 01-.481-.091l.117-1.469c.121.035.251.052.39.052.364 0 .654-.147.871-.442.217-.303.373-.745.468-1.326.095-.58.16-1.296.195-2.145l.13-3.77h6.695V40h-1.664v-8.086l.39.416h-4.329l.364-.429-.091 2.704a22.082 22.082 0 01-.182 2.379c-.095.685-.243 1.261-.442 1.729-.19.46-.446.81-.767 1.053-.32.243-.728.364-1.222.364zM89.514 40v-9.1h1.664v6.461l4.888-6.461h1.573V40h-1.664v-6.448L91.087 40h-1.573zm11.989 0v-9.1h1.378l3.991 6.643h-.741l3.926-6.643h1.378l.026 9.1h-1.612l-.013-6.591h.338l-3.328 5.551h-.754l-3.38-5.551h.39V40h-1.599zm12.648 0l4.095-9.1h1.664l4.108 9.1h-1.768l-3.523-8.203h.676L115.893 40h-1.742zm1.885-2.106l.455-1.326h4.914l.455 1.326h-5.824zM128.167 40v-8.086l.403.416h-3.406V30.9h7.696v1.43h-3.406l.39-.416V40h-1.677zm5.837 0l4.095-9.1h1.664l4.108 9.1h-1.768l-3.523-8.203h.676L135.746 40h-1.742zm1.885-2.106l.455-1.326h4.914l.455 1.326h-5.824zM47.898.056a1.015 1.015 0 00-.332.327c-.015.03-.07.11-.121.176-.106.14-.342.51-.593.927-.49.822-2.337 3.61-3.027 4.571-.323.45-.802 1.033-1.694 2.062-.297.342-.693.803-.883 1.023-.838.975-1.71 1.887-1.958 2.05a.962.962 0 01-.195.1c-.19.059-.669-.016-1.117-.175-.128-.045-.312-.112-.409-.145-.394-.142-1.52-.428-2.294-.584-.758-.152-2.124-.258-3.066-.238-.857.02-2.345.177-2.945.314-.626.142-1.871.496-2.26.645-.837.316-1.337.54-1.954.879-1.375.75-1.693.964-2.562 1.71-.606.518-1.069.945-1.587 1.461-.51.512-.513.515-.959 1.108-.245.327-.565.745-.708.93-.249.32-.266.34-.375.387-.212.095-.667.238-1.942.606a89.73 89.73 0 00-2.146.641c-1.445.46-2.174.795-2.174 1.003 0 .095.114.114.522.084.6-.04 1.258-.137 1.801-.262a95.79 95.79 0 002.343-.602c.26-.074 1.022-.305 1.1-.336.018-.008-.004.046-.063.145-.251.412-.65 1.358-.937 2.207-.424 1.26-.711 2.954-.764 4.497-.016.5.038 2.16.077 2.335.01.045-.024.058-.418.17-.62.178-1.052.272-2.156.475a45.52 45.52 0 01-2.907.457c-1.641.215-2.375.282-4.395.409-2.259.14-2.51.148-4.6.148-1.918.002-1.817-.005-2.048.14a.463.463 0 00-.152.265c0 .138.212.32.466.402.182.057.305.08.649.111 1.52.147 3.092.14 6.02-.026 1.68-.095 1.947-.115 3.335-.262.99-.104 3.309-.36 3.753-.416a125.37 125.37 0 006.04-.948c1.33-.241 1.608-.306 1.866-.436.32-.162.348-.29.323-1.477-.009-.43-.015-.878-.013-.996.01-.48.248-1.814.443-2.477.118-.407.674-1.802.908-2.291.171-.351.223-.431.686-1.052.704-.95 1.105-1.551 1.375-2.057.253-.477.321-.797.213-1.008-.09-.184-.45-.207-1.157-.077a52.44 52.44 0 00-1.254.277c-1.256.29-1.496.344-1.951.428-.431.08-.623.126-1.069.26-.356.107-.89.254-1.038.288-.104.022-.205 0-.234-.056-.026-.05.022-.195.113-.334a1.66 1.66 0 01.676-.586c.309-.137 1.076-.42 2.295-.841l1.328-.463a91.521 91.521 0 012.23-.758c.25-.069.535-.17.78-.279.576-.256.966-.37 1.264-.368.303 0 .457.076.764.372.252.245.414.546.492.925.052.255.046.422-.02.61-.133.362-.593 1.09-1.279 2.02-.48.648-.992 1.484-1.206 1.96-.197.438-.392 1.304-.453 2.015-.024.276-.013.78.02.957.143.764.78 1.357 1.704 1.583.27.066.513.07.721.008.565-.164 1.687-.721 2.124-1.056.563-.43 1.694-1.536 2.317-2.263.421-.492 1.213-1.62 1.639-2.331.199-.333.282-.485.683-1.245.389-.736.472-.883.768-1.357.42-.672.745-1.143 1.047-1.51.71-.862 1.223-1.423 2.227-2.438 2.655-2.683 4.07-4.166 5.12-5.36a93.826 93.826 0 002.077-2.516c.36-.45 1.292-1.825 1.498-2.211.154-.285.292-.73.334-1.078.025-.203.028-.777.004-.823a.52.52 0 01-.031-.117c-.019-.117-.117-.372-.164-.424-.054-.057-.358-.245-.4-.245a.655.655 0 00-.135.056zm.522 6.906c-.167.028-.416.143-.65.305-.34.232-.613.505-1.124 1.122-.927 1.12-1.093 1.306-1.518 1.696a7.561 7.561 0 01-.892.732c-.37.266-.5.381-.624.549a1.788 1.788 0 00-.381 1.12c0 .271.022.36.098.4.2.103.645-.086 1.31-.558.134-.093.346-.236.472-.316.128-.08.396-.27.595-.42.412-.308 1.826-1.466 2.006-1.639.253-.245.51-.585.64-.843.263-.52.349-.914.354-1.604.002-.312-.001-.349-.035-.407-.061-.104-.152-.154-.25-.137zm-.892 6.46c-.36.103-.866.38-1.479.813-.888.627-1.025.71-1.391.834a3.99 3.99 0 00-.41.163c-.165.091-.285.23-.521.61a7.426 7.426 0 01-.279.417c-.191.257-.267.476-.212.612.036.087.12.149.204.149.175 0 .701-.132 1.171-.292.572-.195 1.63-.721 2.156-1.07.475-.318.92-.699 1.116-.96a.946.946 0 00.149-.8c-.047-.19-.153-.41-.22-.464-.055-.043-.154-.047-.284-.012z"/><path d="M27.107 15.446c-.175.065-.39.271-.428.407a.504.504 0 00.164.473c.06.045.083.053.19.053.14-.002.261-.038.484-.147.28-.136.368-.264.316-.457-.026-.099-.147-.23-.27-.294a.735.735 0 00-.456-.035zm18.684 3.701c-.626.113-1.618.517-1.887.767-.235.216-.512.706-1.402 2.475-.713 1.418-.878 1.726-1.072 1.998-1.012 1.413-2.148 2.86-2.633 3.351-.252.259-.406.35-.87.515-.343.123-.49.2-.614.314-.119.11-.247.32-.204.334l.284.092c1.858.59 3.965 1.568 4.864 2.255.06.045.104.086.1.09a.585.585 0 01-.14-.049c-.378-.154-.627-.213-1.233-.288a25.45 25.45 0 01-.758-.102c-.546-.08-.711-.074-.838.032l-.059.05.011.187c.017.303.099.487.251.565.158.08.576.173 1.228.272.474.07.994.17 1.479.286.303.07.513.113 1.078.213.43.078.418.073.661.322.287.293.557.646.677.877l.031.063-.045-.011c-.193-.049-1.774-.279-2.746-.403-1.377-.175-1.815-.212-1.952-.164-.242.082-.426.376-.426.673.002.202.102.34.333.457.215.108.295.122 1.795.325.854.115 1 .143 1.763.327.791.191 1.048.24 1.304.253.208.009.234.007.31-.03.247-.119.792-1.093 1.648-2.947a10.68 10.68 0 00.65-1.752c.36-1.262.508-2.267.595-4.052.047-.93.015-1.43-.169-2.678-.173-1.178-.384-2.22-.555-2.735-.223-.667-.6-1.427-.868-1.754-.123-.152-.279-.186-.59-.128zM23.794 31.932c-.052.134.061.435.29.773.338.506 1.15 1.33 1.956 1.986.524.43 1.108.816 1.366.907l.095.034-.09.01a68.08 68.08 0 01-1.678.172l-1.198.113c-1.82.175-2.718.238-3.735.26l-.527.013.028.065c.156.376 1.507 1.62 2.84 2.622 1.238.925 2.953 1.79 4.636 2.334.987.317 1.918.462 3.42.531.538.024 2.086.013 2.545-.018 1.302-.092 2.159-.225 2.991-.467.314-.093.502-.162 1.264-.468.24-.097.542-.212.67-.257l.234-.081.333.23c.903.623 1.62 1.182 2.33 1.812a27.504 27.504 0 011.589 1.598c.215.234.732.799 1.152 1.254 1.638 1.778 2.253 2.462 2.86 3.184.168.201.187.216.209.186.052-.07.07-.186.067-.425-.004-.342-.032-.532-.1-.677-.16-.341-.82-1.317-1.611-2.38-1.968-2.64-3.95-4.877-4.924-5.552a2.2 2.2 0 00-.223-.14l-.08-.041.143-.092c.171-.108.5-.345.779-.563a46.245 46.245 0 001.618-1.362c.037-.035.043-.035.26.012l.658.13c1.193.234 1.626.379 2.824.943.515.242.946.42 1.107.46.233.052.365-.07.365-.335.002-.373-.313-.933-.677-1.208-.49-.371-1.683-.854-3.091-1.252a13.592 13.592 0 00-2.191-.464c-1.574-.223-2.505-.315-3.224-.315-.388-.002-.468.004-.724.049l-.586.096c-.525.084-.773.171-.953.335-.136.122-.178.212-.165.34.011.108.102.318.2.462.238.353.872 1.017 1.29 1.351l.585.467c.372.297.732.646.8.773l.044.087-.047.089a.554.554 0 01-.308.25 1.18 1.18 0 01-.613.012c-.12-.04-.444-.228-1.483-.85-2.216-1.324-2.138-1.281-3.567-1.922-.45-.203-1.073-.487-1.385-.632l-.566-.264-.223-.031c-.99-.143-1.975-.472-3.13-1.052-.75-.375-1.463-.88-2.714-1.921-.875-.729-1.232-.996-1.49-1.117-.175-.08-.23-.093-.245-.054zM9.662 48.134c0 .024.108.13.121.118.004-.006-.02-.04-.056-.073-.035-.035-.065-.054-.065-.045z"/></g></svg>
